X:640
T:The Milk-Mayds Bobb.
C:John Malchair's Third Collection of Tunes
F:https://www.vwml.org/record/Malchair/3619/p64
F:www.vwml.org/topics/historic-dance-and-tune-books/Malchair
Z:Eric Conrad Feb 2020
N:Older notation - stemless black notes are half notes
N:NB1 Meter changed from 6/4 (marked as common time) to 6/8.
N:NB2 Repeats added.
N:NB3 Stemless black note in original.
M:6/8   % marked in MS as common time but barred as 6/4
L:1/8   % Notes ha half of original value (original L:1/4)
K:G
P:A
|: "_NB1,2"ddd ddB | cAc "_NB3"B2G | dde f>ga | geg "_NB3"f2d :|
P:B
|: dgd e>cA | ege f>ed | dgd g>ab | ba>g "_NB3"g3 :|

